build/img/icon-telegram.svg

<svg width="22" height="18" viewBox="0 0 22 18" xmlns="http://www.w3.org/2000/svg">
<path d="M8.63262 11.8632L8.2687 16.8888C8.78938 16.8888 9.01488 16.6692 9.2853 16.4055L11.7264 14.115L16.7847 17.7519C17.7124 18.2595 18.366 17.9922 18.6163 16.914L21.9365 1.63926L21.9374 1.63836C22.2317 0.291963 21.4415 -0.234534 20.5377 0.0957645L1.02135 7.43163C-0.310594 7.93922 -0.290427 8.66822 0.794932 8.99852L5.78447 10.5222L17.3742 3.40235C17.9196 3.04775 18.4155 3.24395 18.0076 3.59855L8.63262 11.8632Z"/>
</svg>

<svg width="22" height="18" xmlns="http://www.w3.org/2000/svg"><path d="M8.633 11.863l-.364 5.026c.52 0 .746-.22 1.016-.483l2.441-2.291 5.059 3.637c.927.508 1.581.24 1.831-.838l3.32-15.275h.001c.295-1.347-.495-1.874-1.4-1.543L1.022 7.432C-.31 7.939-.29 8.668.795 8.999l4.99 1.523 11.59-7.12c.545-.354 1.04-.158.633.197l-9.375 8.264z"/></svg>
